!!!!SEGMENT: Wil3001-Petite_Camusette.krn
!!!id: Wil3001
!!!AGN: Chanson
!!!SCT: Thomas (1972)
!!!voices: 4
!!!COM: Adrian Willaert
!!!OTL: Petite camusette
**kern	**kern	**kern	**kern
*part4	*part3	*part2	*part1
*staff4	*staff3	*staff2	*staff1
*I"Bassus	*I"Tenor	*I"Altus	*I"Superius
*I'B	*I'T	*I'A	*I'S
*clefF4	*clefGv2	*clefGv2	*clefG2
*k[]	*k[]	*k[]	*k[]
*C:	*C:	*C:	*C:
*M2/1	*M2/1	*M2/1	*M2/1
*met(C)	*met(C)	*met(C)	*met(C)
=1	=1	=1	=1
!	!LO:TX:a:t=Canon&colon; tenor/bassus at the sixth	!	!LO:TX:a:t=Canon&colon; superius/altus at the sixth
0r	1r	0r	1b
.	[1e	.	1e
=2	=2	=2	=2
0r	1e]	0r	1b
.	1A	.	1cc
=3	=3	=3	=3
0r	1e	1r	1b
.	1f	1d	1a
=4	=4	=4	=4
0G	1e	1G	1g
.	1d	1d	1r
=5	=5	=5	=5
1C	1c	1e	1r
1G	1r	1d	1b
=6	=6	=6	=6
1A	1r	1c	1e
1G	1e	1B	1b
=7	=7	=7	=7
1F	1A	0r	1.cc
1E	1e	.	.
.	.	.	2b
=8	=8	=8	=8
0r	1.f	1d	2a
.	.	.	2.dd
.	.	1G	.
.	.	.	4cc
.	2e	.	[2cc
=9	=9	=9	=9
1G	1d	1d	4cc]
.	.	.	4b
.	.	.	4b
.	.	.	4a
1C	1c	[1e	1cc
=10	=10	=10	=10
1G	0r	2e]	0r
.	.	2d	.
[1A	.	2c	.
.	.	[2f	.
=11	=11	=11	=11
2A]	0r	4f]	1r
.	.	4e	.
2G	.	2.e	.
1F	.	.	2r
.	.	4d	.
.	.	4d	2a
.	.	4c	.
=12	=12	=12	=12
1E	2r	1e	2b
.	2c	.	2cc
1r	2d	1r	4b
.	.	.	4a
.	2e	.	4g
.	.	.	4f
=13	=13	=13	=13
0r	1c	0r	4e
.	.	.	4d
.	.	.	1a
.	1B	.	.
.	.	.	2g#i
=14	=14	=14	=14
1r	1A	2r	1.a
.	.	2c	.
2r	1r	2d	.
2E	.	2e	2g
=15	=15	=15	=15
2F	0r	4d	2f
.	.	4c	.
2G	.	4B	2d
.	.	4A	.
1E	.	4G	1e
.	.	4F	.
.	.	[2c	.
=16	=16	=16	=16
1D	1d	2c]	1r
.	.	2B	.
1C	[1e	[1c	1g
=17	=17	=17	=17
0r	2e]	2c]	2e
.	2d	2B	2.f
.	1c	2A	.
.	.	.	4e
.	.	2F	[2a
=18	=18	=18	=18
1r	1B	1G	2a]
.	.	.	2g#i
1F	1A	1r	1a
=19	=19	=19	=19
1.G	1r	1B	0r
.	2r	2G	.
2F	2c	[2A	.
=20	=20	=20	=20
1E	1c	4A]	1r
.	.	4G	.
.	.	1c	.
1D	1r	.	2r
.	.	2B	2f
=21	=21	=21	=21
1C	2r	1c	2g
.	2c	.	2a
1r	2d	1r	2f
.	2e	.	2g
=22	=22	=22	=22
2r	1c	0r	2.e
2E	.	.	.
.	.	.	4f
1E	1B	.	4g
.	.	.	2a
.	.	.	4g
=23	=23	=23	=23
1r	1A	2r	4a
.	.	.	4g
.	.	2A	4f
.	.	.	4e
2r	1r	2B	2d
2E	.	2c	[2e
=24	=24	=24	=24
2F	0r	2A	4e]
.	.	.	4d
2G	.	2B	2d
1E	.	2.G	1e
.	.	4A	.
=25	=25	=25	=25
1D	1r	4B	1r
.	.	2c	.
.	.	4B	.
1C	1c	4c	2r
.	.	4B	.
.	.	4A	2cc
.	.	4G	.
=26	=26	=26	=26
0r	2c	2F	2cc
.	2e	2.G	2.b
.	1d	.	.
.	.	4F	4a
.	.	2F	[2a
=27	=27	=27	=27
0r	1B	1G	2a]
.	.	.	2g#i
.	1A	1r	2.a
.	.	.	4gny
=28	=28	=28	=28
1E	0r	2r	1e
.	.	2e	.
2E	.	2e	1r
2G	.	[2d	.
=29	=29	=29	=29
1F	0r	4d]	0r
.	.	4c	.
.	.	1c	.
1D	.	.	.
.	.	2B	.
=30	=30	=30	=30
1C	1e	2.c	1r
.	.	4B	.
1r	2e	1G	2r
.	2d	.	2b
=31	=31	=31	=31
0r	2e	0r	2b
.	2f	.	2a
.	[1e	.	2b
.	.	.	2cc
=32	=32	=32	=32
1r	2e]	0r	1.b
.	2e	.	.
1G	2e	.	.
.	2d	.	2b
=33	=33	=33	=33
2G	2e	2r	2g
2F	2f	2d	2a
2G	1e	2d	2b
2A	.	2c	2cc
=34	=34	=34	=34
1.G	0r	2d	1b
.	.	2e	.
.	.	[1d	2r
2G	.	.	2b
=35	=35	=35	=35
2G	1r	2d]	1.dd
2F	.	2d	.
2G	2r	2B	.
2A	2f	2c	2cc
=36	=36	=36	=36
1G	1.g	2d	2.b
.	.	2e	.
.	.	.	4a
1r	.	1d	2b
.	2f	.	2a
=37	=37	=37	=37
0r	2e	2r	2g
.	2f	2d	1a
.	1d	[1f	.
.	.	.	4g
.	.	.	4f
=38	=38	=38	=38
2r	1c	2f]	1cc
2A	.	2e	.
[1B	1r	2.d	1f
.	.	4c	.
=39	=39	=39	=39
2B]	0r	2d	0r
2A	.	2c	.
2G	.	2B	.
2A	.	[2c	.
=40	=40	=40	=40
1F	1f	2c]	2r
.	.	4B	1cc
.	.	4A	.
1E	1g	1e	.
.	.	.	2b
=41	=41	=41	=41
0r	2f	1A	2a
.	1e	.	1cc
.	.	1r	.
.	4d	.	4b
.	4c	.	4a
=42	=42	=42	=42
1r	2d	1r	2b
.	2d	.	2b
1A	1c	2r	1cc
.	.	[2e	.
=43	=43	=43	=43
1B	0r	2e]	0r
.	.	2d	.
2A	.	2c	.
[2G	.	[2e	.
=44	=44	=44	=44
2G]	0r	2e]	0r
4F	.	4d	.
4E	.	4c	.
2F	.	2d	.
2F	.	2d	.
=45	=45	=45	=45
1E	1r	1e	1b
1r	[1e	1r	1e
=46	=46	=46	=46
0r	1e]	0r	1b
.	1A	.	1cc
=47	=47	=47	=47
0r	1e	1r	1b
.	1f	1d	1a
=48	=48	=48	=48
0G	1e	1G	1g
.	1d	1d	1r
=49	=49	=49	=49
1C	1c	1e	1r
1G	1r	1d	1b
=50	=50	=50	=50
1A	1r	1c	1e
1G	1e	1B	1b
=51	=51	=51	=51
1F	1A	0r	1.cc
1E	1e	.	.
.	.	.	2b
=52	=52	=52	=52
0r	1.f	1d	2a
.	.	.	2.dd
.	.	1G	.
.	.	.	4cc
.	2e	.	[2cc
=53	=53	=53	=53
1G	1d	1d	4cc]
.	.	.	4b
.	.	.	4b
.	.	.	4a
1C	1c	[1e	1cc
=54	=54	=54	=54
1G	0r	2e]	0r
.	.	2d	.
[1A	.	2c	.
.	.	[2f	.
=55	=55	=55	=55
2A]	0r	4f]	1r
.	.	4e	.
2G	.	2.e	.
1F	.	.	2r
.	.	4d	.
.	.	4d	2a
.	.	4c	.
=56	=56	=56	=56
1E	2r	1e	2b
.	2c	.	2.cc
1r	2d	1r	.
.	.	.	4b
.	2e	.	[2b
=57	=57	=57	=57
0r	1c	0r	2b]
.	.	.	2a
.	1B	.	1dd
=58	=58	=58	=58
1r	1A	2r	1cc
.	.	2c	.
2r	1r	2d	1r
2E	.	[2e	.
=59	=59	=59	=59
2F	0r	4e]	1r
.	.	4d	.
2G	.	1d	.
1E	.	.	2r
.	.	2c	2cc
=60	=60	=60	=60
1D	1r	1f	2a
.	.	.	2b
1C	1c	1e	[1cc
=61	=61	=61	=61
0r	2A	0r	2cc]
.	2B	.	2b
.	1c	.	2a
.	.	.	4g
.	.	.	4f
=62	=62	=62	=62
0r	1c	2r	1g
.	.	2e	.
.	2F	2c	2f
.	2f	2d	2a
=63	=63	=63	=63
1E	2e	1.e	4g
.	.	.	4a
.	2g	.	4b
.	.	.	4g
2C	2g	.	2cc
2D	2f	2d	[2b
=64	=64	=64	=64
1E	0e	2c	2b]
.	.	4B	1a
.	.	4A	.
1E	.	1B	.
.	.	.	2g#i
=65	=65	=65	=65
00AAl	00el	00Al	00al
==	==	==	==
*-	*-	*-	*-
!!!system-decoration: [*]
!!!RDF**kern: i = editorial accidental
!!!RDF**kern: l = terminal long
!!!ENC: Benjamin Ory
!!!END: 2020/12/18
!!!EED: Benjamin Ory
!!!EEV: 2021/04/30
!!!YEC: Copyright 2021 Benjamin Ory, All Rights Reserved
!!!ONB: Translated from MusicXML on 2021/04/30
